X: 77
T: Premier Trio pour Piano, Violon et Violoncelle	 Op. 8
C: Fryderyk Chopin
%%abc-version 2.0
%%abcx-abcm2ps-target-version 5.9.1 (29 Sep 2008)
%%abc-creator hum2abc beta
%%abcx-conversion-date 2021/10/03 11:24:01
%%abc-edited-by Jędrzej Mróz
%%abc-edited-by Emilia Ziętek
%%abcx-initial-encoding-date 2019-10-09
%%humdrum-veritas 4236907685
%%humdrum-veritas-data 3707229230
%%linebreak <none>
%%barnumbers 0
L: 1/8
M: 3/4
N: Derived from 008-1-Sm-003.krn
Q: "Sostenuto. M.M. [quarter] = 63."
%%staves [1 2 3 4]
V: 1 clef=treble
V: 2 clef=bass
V: 3 clef=treble
V: 4 clef=bass
K: Eb
[V:1] z6 | 
[V:2] z6[K:clef=tenor] | 
[V:3] [E2E,2]>>[E2E,2] (3:2:4[EE,]B,z/_C/ | 
[V:4] E,,2>>E,,2 (3:2:4E,,[B,,B,,,]z/[_C,/_C,,/] | 
[V:1] z6 | 
[V:2] _C2>C2 (3C_G,A, | 
[V:3] !accent![_G6-E6_C6-_G,6-] | 
[V:4] [_C,6_C,,6]- | 
[V:1] !accent!_G2>G2 (3GDE/ | 
[V:2] =A,6 | 
[V:3] [G2E2C2G,2][=a2e2=A2]z2 | 
[V:4] [C,2C,,2][_C2_G,2_C,2]z2 | 
[V:1] !accent!F2>z2z2 | 
[V:2] B,2>z2z2[K:clef=bass] | 
[V:3] [B2D2_A,2][b/d/B/A/] =A,/B,/D/ F/_A/c/B/ | 
[V:4] [B,,2B,,,2][F/B,/] z/ zz2 | 
[V:1] G2A2D2 | 
[V:2] E,2!accent!F,4 | 
[V:3] e3//>>>(5:4:5d2e//d//^c//d// g3/f/ & G2A4 | 
[V:4] B,4(3_CB,D & E,2F,4 | 
[V:1] E2C z z E | 
[V:2] G,2!accent!A, z z A, | 
[V:3] B>=B!arpeggio![c2E2C2]z [cE] & E2x4 | 
[V:4] G,2!arpeggio![A,2E,2A,,2]z [CA,] | 
[V:1] =E2F2G3/A/ | 
[V:2] G,2F,2E,2 | 
[V:3] Bc BA [GC]C & =E2F2x2 | 
[V:4] [C2G,2][C2F,2][G,2E,2] | 
[V:1] !accent!G2F3B, | 
[V:2] D,6 | 
[V:3] !accent!C2>=B,2F2 & x4_B,A, | 
[V:4] [A,4D,4]D,2 | 
[V:1] E4F2 | 
[V:2] E,2C,2D,2 | 
[V:3] [E2-G,2][E/C/A,/]F//E// D//E//A//c// c3/B/ & x4[A2F2] | 
[V:4] E,2[E,2C,2][B,2D,2] | 
[V:1] G2!accent!E4 | 
[V:2] E,2!accent!G,2F,2 | 
[V:3] B2-B/c//B// =A//B//e//z/8g/8 g3/f/ & G2x2!accent!=A2 | 
[V:4] [B,2E,2][E2G,2][E2C2F,2] | 
[V:1] D z z DDC | 
[V:2] B,2z !accent!B,,!accent!=B,,!accent!C, | 
[V:3] f3/d//B// A.[AF].[AFD].[AFC] & !accent!=F2x4 | 
[V:4] [D2B,2]z .B,,.=B,,.C, | 
[V:1] =B,2>z2z2 | 
[V:2] D,3z/ E,/A,,B,, | 
[V:3] {/G/A/B/} !accent!A>G G z/ x< {/G} FE/ & [F3=B,3]x/ !wedge![G/E/C/] C[DA,] | 
[V:4] D,3z/ E,< !accent!A,,B,,/ | 
[V:1] e2(5:4:5d/e/d/^c/d/ !accent!g3/f/ | 
[V:2] !wedge!E,, zz2z2 | 
[V:3] (3[EG,]B,G (3[F_A,]_CA (3DCA, | 
[V:4] [E,6E,,6] | 
[V:1] B>=Bc2z c | 
[V:2] E,,2!accent!A,,2-(3:2:6A,,/B,,/A,,/G,,/A,,/B,,/ | 
[V:3] (3[EG,]B,G (3[EA,]CA (3ECA, | 
[V:4] [E,2E,,2]A,,3z | 
[V:1] (3:2:6B/c/B/=A/B/c/ B_AGA | 
[V:2] C, zF,2E,2 | 
[V:3] (3[=EB,]CG (3[FA,]CF (3GCG, | 
[V:4] C,2F,2E,2 | 
[V:1] !accent!G2F2(3:2:6=E/F/G/F/A/G/ | 
[V:2] !accent!D,4D,2 | 
[V:3] (3A,CA, (3_CA,C (3[FA,]B,A, | 
[V:4] !accent!D,4D,2 | 
[V:1] E4(3:2:6D/E/F/G/A/B/ | 
[V:2] E,2D,2_D,2 | 
[V:3] (3G,B,G (3[EG,]B,G (3[EG,]B,G | 
[V:4] E,2D,2_D,2 | 
[V:1] !accent!_dc (3:2:6G/B/G/B/f/e/ _dc | 
[V:2] C,2B,,2A,,2 | 
[V:3] (3[E_A,]E,A (3[E_D]E,B (3[EC]E,c | 
[V:4] C,2B,,2A,,2 | 
[V:1] =B/c/d/c/ (7:4:7!accent!G!accent!A!accent!_BAFCD | 
[V:2] A,,4B,,2 | 
[V:3] (3[FC]F,A (3[FC]A,c (3[FD]A,B | 
[V:4] [A,,4A,,,4][B,,2B,,,2] | 
[V:1] !accent!F2E zz2 | 
[V:2] B,,2E,, zG,2 | 
[V:3] [D2A,2][EG,] zz2 | 
[V:4] [B,,2B,,,2]E,, zz2 | 
[V:1] z6 | 
[V:2] =B,,>D, (5:4:5F,/G,/F,/=E,/F,/ _B,3/_A,/ | 
[V:3] !arpeggio![d2_A2F2D2]z2z3/ [c/A/F/] | 
[V:4] !arpeggio![=B,2_A,2F,2D,2=B,,2]z2z3/ C/ | 
[V:1] z6 | 
[V:2] !accent!A,2G,2=B,3/C/ | 
[V:3] [=B2F2]>z2z2 | 
[V:4] D3z/ G,/ (3:2:4G,D,z/E,/ | 
[V:1] z6 | 
[V:2] D>=B, G,/A,/_B,/A,< !accent!G,F,/ | 
[V:3] [d2G2F2D2][d'gfd] zz2 | 
[V:4] !arpeggio![=B,2G,2D,2=B,,2][K:clef=treble][=BGD=B,] zz2[K:clef=bass] | 
[V:1] z2z2B2 | 
[V:2] !accent!F,2=E,2!accent!_D,2 | 
[V:3] (3z G,_D (3GDG, (3FB,F, | 
[V:4] [_B,,4_B,,,4][_D,2_D,,2] | 
[V:1] =E>G (5:4:5B/c/B/=A/B/ _e3/_d/ | 
[V:2] C, z[K:clef=tenor]=E2F2 | 
[V:3] (3B,G,=E (3B,G,G (3FB,F, | 
[V:4] [C,6C,,6]- | 
[V:1] !accent!_d2c2=e3/f/ | 
[V:2] C zz2(3CG,A,/ | 
[V:3] (3B,GG, (3=EG,B (3GEB, | 
[V:4] [C,6C,,6] | 
[V:1] !accent!g>=e c/_d/_e/d< !accent!cB/ | 
[V:2] B,2>z2 z z/[K:clef=bass] C,/ | 
[V:3] (3=EG,G (3EG,B (3GEB, | 
[V:4] [C,6C,,6] | 
[V:1] B2A4 | 
[V:2] _D,6- | 
[V:3] (3z G,=E (3[F_A,]_DA, (3FDA, | 
[V:4] [_D,6_D,,6] | 
[V:1] A4!accent!G3/c/ | 
[V:2] D,2!accent!C,4 | 
[V:3] (3=B,F,F (3B,F,F- (3[FC]=EG, | 
[V:4] [_D,2_D,,2][C,4C,,4] | 
[V:1] B4=A3/d/ | 
[V:2] E,2!accent!D,4 | 
[V:3] (3^CG,G (3CG,G- (3!accent!G^FA, & x4D2 | 
[V:4] [E,2E,,2][D,4D,,4] | 
[V:1] d2cB=AG | 
[V:2] !accent!E,6 | 
[V:3] (3GG,G (3G,CG (3^CG,G | 
[V:4] [E,6E,,6] | 
[V:1] =A4(3BcB/ | 
[V:2] D,6 | 
[V:3] (3^FD=A, (3=FDA, F3/^F/ | 
[V:4] [D,4D,,4]_A,/B,3/ & x4D,2 | 
[V:1] B4D2 | 
[V:2] E,2F,4 | 
[V:3] e3//>>>(5:4:5d2e//d//^c//d// g3/f/ & G2A4 | 
[V:4] B,4(3_CB,D/ & E,2F,4 | 
[V:1] E2C zz2 | 
[V:2] G,2A, z z A, | 
[V:3] B>=B!arpeggio![c2A2E2C2]z [cE] & E2x4 | 
[V:4] G,2!arpeggio![A,2E,2A,,2]z [CA,] | 
[V:1] C6- | 
[V:2] G,2F,2E,2 | 
[V:3] (3:2:6B/c/B/=A/B/c/ B_A (7:4:7G/A/G/^F/G/B/A/ & =E2F2C2 | 
[V:4] [C2G,2][C2F,2][G,2E,2] | 
[V:1] C2>=B,2 _B,/C/_A,/B,/ | 
[V:2] D,2z2D,2 | 
[V:3] !accent!GFz2[F2B,2A,2] & C2x2x2 | 
[V:4] [A,2D,2]z2D,2 | 
[V:1] G,4E3/G,/ | 
[V:2] E,2D,2_D,2 | 
[V:3] E4(3:2:6D/E/F/G/A/B/ | 
[V:4] {/G,B,}E,2D,2_D,2 & (3E,B,G, (3D,B,G, (3_D,B,E, | 
[V:1] A,2B,2C2 | 
[V:2] C,2B,,2A,,2 | 
[V:3] !accent!_dc (3:2:6G/B/G/B/f/e/ dc | 
[V:4] C,2B,,2A,,2 & (3C,A,E, (3B,,_DE, (3A,,CE, | 
[V:1] F2!accent!A>G G/F/E/F/ | 
[V:2] A,,2C,2B,,2 | 
[V:3] =B/c/d/c< FE/D2 | 
[V:4] A,,2C,2B,,2 & (3A,,CF, (3C,A,F, (3B,,A,F, | 
[V:1] D2E zz2 | 
[V:2] !accent!=B,,2C, zz2 | 
[V:3] !accent![F2A,2][EG,] z/ E/ (3:2:4E=B,z/C/ | 
[V:4] =B,,2C, z/ E,/ (3:2:4E,=B,,z/C,/ | 
[V:1] !accent!A2G z/ E/ (3E=B,C/ | 
[V:2] !accent!F,2E, zz2 | 
[V:3] !accent![D2=B,2A,2][ECG,] zz2 | 
[V:4] [F,2F,,2][E,E,,] zz2 | 
[V:1] !accent!_G2F zz2 | 
[V:2] !accent!=A,,2!wedge!B,,[K:clef=tenor] z/ !wedge!_D/ (3=D=A,B, | 
[V:3] [E2C2_G,2][_DB,F,] zz2 | 
[V:4] [=A,,2=A,,,2][B,,B,,,] zz2 | 
[V:1] !accent!G,2A, zz2 | 
[V:2] _F2-(3!accent!F!accent!E!accent!_D (3_CB,A,[K:clef=bass] | 
[V:3] !accent![B2_D2][A_C] zz2 | 
[V:4] G,2A, zz2 | 
[V:1] !accent!_c2>c2 (3cGA | 
[V:2] !accent!_F,6 | 
[V:3] [A2=D2A,2][adA_F] z z3/ [D/A,/] | 
[V:4] [_F,2_F,,2]F, z z3/ [_F,/_F,,/] | 
[V:1] !accent!G4G3/A/ | 
[V:2] E,2>E,2 (3E,=A,,B,,/ | 
[V:3] (3EG,B, (3EG,B, (3G,B,E | 
[V:4] [E,6E,,6] | 
[V:1] B2>B2 (3!accent!B^FG | 
[V:2] [K:clef=bass]_D,6 | 
[V:3] (3=EG,B, (3EG,B, (3G,B,E | 
[V:4] [_D,6_D,,6] | 
[V:1] B6 | 
[V:2] C,2z C, (3C,F,,_G,, | 
[V:3] (3_E_G,B, (3EG,B, (3EG,B, | 
[V:4] [C,2C,,2]z [C,C,,] (3[C,C,,][F,,F,,,][_G,,_G,,,] | 
[V:1] B2>A2 (3:2:4A=Ez/F/ | 
[V:2] !accent!_C,6 | 
[V:3] (3EF,_A, (3EF,A, (3EA,A | 
[V:4] [_C,6_C,,6] | 
[V:1] D6- | 
[V:2] B,,2B,2_C2 | 
[V:3] {/A}a3z/ a/ (3:2:4adz/e/ | 
[V:4] (3[B,,B,,,]B,,F,[K:clef=treble] (3B,FA (3_CFA & x2B,2_C2 | 
[V:1] D2z2z2 | 
[V:2] B,2>B,2 (3B,F,_G, | 
[V:3] !accent!_g>ff2z2 | 
[V:4] (3B,DA (3B,DA (3B,DB & B,2B,2B,2 | 
[V:1] z6 | 
[V:2] A,2_C2B,2 | 
[V:3] {/f} (3:2:9f'd'//_c'//a//b//c'//a//f//e// !wedge!d z d3/e/ | 
[V:4] (3[_cA,]DF (3ADF (3BDF & A,2_C2B,2 | 
[V:1] z2A2(3:2:6B/A/_G/F/E/_D/ | 
[V:2] A,2!accent!_C4 | 
[V:3] _g>ff2z2 | 
[V:4] (3[_c_A,]DF (3ADF (3C_DF & _A,2_C2C2 | 
[V:1] _D4A2- | 
[V:2] B,2!accent!F,4 | 
[V:3] _d2-(7:4:14d//e//d//c//d//e//f//_g//a//b//_c'//a//f//d//!accent!_c2 | 
[V:4] (3B,_G_D[K:clef=bass]F,2F,2 & B,2(3F,A_D (3F,_AD | 
[V:1] A_GF2B,3/F/ | 
[V:2] _G,2!accent!D,4 | 
[V:3] B2-(7:4:14B//_c//B//=A//B//=c//d//e//f//_g//_a//f//d//B//!accent!A2 | 
[V:4] _G,2D,2D,2 & (3_G,D[_GB,] (3D,FB, (3D,FB, | 
[V:1] E>F_G2A3/=A/ | 
[V:2] !accent!E,>_D,_C,4 | 
[V:3] !accent!_G>F!trill!E2{/DE} F3/E/ | 
[V:4] (3E,B,_D, (3_C,_G,B, (3C,F,_C | 
[V:1] B4d2 | 
[V:2] B,,2D,F,B,2- | 
[V:3] (3DFF, (3B,F,D (3FDF, | 
[V:4] [B,,6B,,,6]- | 
[V:1] c4F2 | 
[V:2] B,2=A,G,A,[K:clef=tenor]E | 
[V:3] (3EFF, (3CEG (3FEF, | 
[V:4] [B,,6B,,,6] | 
[V:1] f4ed | 
[V:2] D2(5:4:5F/G/F/=E/F/[K:clef=treble] cB- | 
[V:3] (3DFF, (3DF,D (3FDF, | 
[V:4] [B,,6B,,,6]- | 
[V:1] c4dc | 
[V:2] B=A AGFE | 
[V:3] (3EFF, (3EF,E (3FEF, | 
[V:4] [B,,6B,,,6] | 
[V:1] B6- | 
[V:2] D6- | 
[V:3] (3DF,B (3B,Fd (3BfD | 
[V:4] [B,,6B,,,6]- | 
[V:1] B2z2z2 | 
[V:2] D2z2z2 | 
[V:3] (3dFb (3Bfd' (3bf'd | 
[V:4] [B,,2B,,,2]z2z2 | 
[V:1] z6 | 
[V:2] z6[K:clef=bass] | 
[V:3] (3d'fb' (3fd'b' (3d'b'f | 
[V:4] z6 | 
[V:1] z6 | 
[V:2] z6 | 
[V:3] b'2z> B, (3:2:4_CB,z/F/ | 
[V:4] z2z> B,, (3:2:4_C,B,,z/F,/ | 
[V:1] z6 | 
[V:2] z6 | 
[V:3] =A,2z B, (3:2:4_CB,z/F/ | 
[V:4] =A,,2z B,, (3:2:4_C,B,,z/F,/ | 
[V:1] z6 | 
[V:2] z6 | 
[V:3] =A,2z B, (3_CB,F | 
[V:4] =A,,2z [B,,B,,,] (3[_C,_C,,][B,,B,,,][F,F,,] | 
[V:1] z2=A,2A,2 | 
[V:2] z2.=A,,2.A,,2 | 
[V:3] !accent!=A,6 | 
[V:4] [=A,,6=A,,,6] | 
[V:1] =A,2>z2z2 | 
[V:2] =A,,2>z2z2 | 
[V:3] !accent![G2=E2^C2]z> =A (3:2:4BAz/=e/ | 
[V:4] =A,2z> A, (3:2:4B,A,z/=E/ | 
[V:1] !accent!^C2>z2z2 | 
[V:2] =E,2>E,2 (3E,!accent!=A,G,/ | 
[V:3] !accent![=A2G2^C2]>z2z2 | 
[V:4] =E,2>z2z2 | 
[V:1] !accent!D2>z2z2 | 
[V:2] F,2>z2z2 | 
[V:3] !accent!_c2B z/ B/ (3:2:4_cBz/f/ & [_A2D2]>x2x2 | 
[V:4] F,3z/ B,/ (3:2:4_CB,z/F/ | 
[V:1] z6 | 
[V:2] !accent!F,2>=E,2 (3!accent!F,CB,/ | 
[V:3] !accent!_c2B zz2 & [A2D2]>x2x2 | 
[V:4] F,2>z2z2 | 
[V:1] G2!accent!A7/F/ | 
[V:2] B,4(3:2:4!accent!_CB,[K:clef=tenor]z/D/ | 
[V:3] e3//>>>(5:4:5d2e//d//^c//d// !accent!g3/f/ & G2A4 | 
[V:4] B,4(3:2:4_CB,z/D/ & E,2F,4 | 
[V:1] B>E {/E}c2z2 | 
[V:2] E z[K:clef=bass]!accent!_A,,2(3:2:6A,,/B,,/A,,/G,,/A,,/B,,/ | 
[V:3] [B2E2]!arpeggio![c2A2E2C2]z2 | 
[V:4] G,2!arpeggio![A,2E,2C,2A,,2]z2 | 
[V:1] (3df>!accent!e !wedge!e zz2 | 
[V:2] =B,,2C, zz2 | 
[V:3] !arpeggio![d2_A2F2D2]!arpeggio![e=A^FE] zz2 | 
[V:4] !arpeggio![=B,2_A,2F,2D,2=B,,2]!arpeggio![C=A,^F,E,C,] zz2 | 
[V:1] z6 | 
[V:2] z6 | 
[V:3] _G2>G2 (3:2:4GDz/E/ | 
[V:4] z6 | 
[V:1] G6- | 
[V:2] B,6- | 
[V:3] [=G6E6B,6]- | 
[V:4] B,2>G,2 (3G,D,E,/ | 
[V:1] G3A/G/ ^F/G/c3//B// | 
[V:2] B,4!accent!A,G, | 
[V:3] [G2E2B,2]z2z2 | 
[V:4] B,,2z2x2 | 
[V:1] E4!accent!A3/G/ | 
[V:2] G,A,/G,/ ^F,G,CB, | 
[V:3] z6 | 
[V:4] z6 | 
[V:1] F2C2D2 | 
[V:2] =A,2_A,2F,2 | 
[V:3] z6 | 
[V:4] z6 | 
[V:1] E2(5:4:5D/E/D/^C/D/ !accent!G3/F/ | 
[V:2] E,2!accent!A,4 | 
[V:3] [G,2B,,2]!accent![A,4_C,4] | 
[V:4] E,,E,, E,,z/E,,/ (3:2:4E,,A,,,z/_C,,/ | 
[V:1] E2(5:4:5D/E/D/^C/D/ !accent!G3/F/ | 
[V:2] G,2!accent!A,4 | 
[V:3] [G,2B,,2]!accent![A,4_C,4] | 
[V:4] E,,E,, E,,z/E,,/ (3:2:4E,,A,,,z/_C,,/ | 
[V:1] E z !accent![EG,] z !accent![EG,] z | 
[V:2] G, z E,, z E,, z | 
[V:3] [G,B,,] z/ E,/- (3:2:8E,=A,,z/B,,/- B,,^F,,z/G,,/ | 
[V:4] E,, z/ E,,/ (3:2:8E,,=A,,,z/B,,,/ B,,,^F,,,z/G,,,/ | 
[V:1] [E2G,2]z2z2 |]  
[V:2] E,,2z2z2 |]  
[V:3] E,,2z2z2 |]  
[V:4] !fermata!E,,,2z2z2 |]  
% FRACTION = 0.5BUT SHOULD BE 0
% FRACTION = 0.5BUT SHOULD BE 0
% FRACTION = 0.5BUT SHOULD BE 0
